X: 1
T: Ducks on the Pond
M: C|
L: 1/8
K: Ador
|: "Am"[A4E4] [e4A4] | edef g4 | "G"B2Bc BAGA | BABc BAG2 |
|  "Am"[A4E4] [e4A4] | edef gaba | "G"g2e2 d2B2 | "Am"A3B A4 :|
|: "Am"{e}aebe a2g2 | edef g2g2- | "G"gfga bagf | edeg age2 |
|  "Am"aebe a2g2 | edef g2ba |"G"g2e2 d2B2 | "Am"A3B A4 :|

%%sep 2 1 500
%%sep 1 1 500

